X: 552
T: Above And Beyond
R: hornpipe
M: 4/4
K: Dmajor
|:FDCD F2 AG|FDCD F3 A|cA d2 cAFA|G^FG A2 B AG|
FDCD F2 AG|FDCD F3 A|cA d2 cAFA|1 G2 FE F4:|2 G2 FE FGAc|
|:d2d3 c Ad|Accd cAF2|ABdB A2 GF|DGG^F G2 AG|
FDCD F2 AG|FDCD F3 A|cA d2 cAFA|1 G2 FE FGAc:|2 G2 FE F4:|
|:FDCD F2 AG|FDCD F3 A|cA d2 cAFA|G^FG A2 B AG|
FDCD F2 AG|FDCD F3 A|cA d2 cAFA|1 G2 FE F4:|2 G2 FE FGAc|
|:d2d3 c Ad|Accd cAF2|ABdB A2 GF|DGG^F G2 AG|
FDCD F2 AG|FDCD F3 A|cA d2 cAFA|1 G2 FE FGAc:|2 G2 FE F4:|

